svgs/light/mug-tea-saucer.svg

<svg xmlns="http://www.w3.org/2000/svg" viewBox="0 0 640 512"><!--! Font Awesome Pro 6.6.0 by @fontawesome - https://fontawesome.com License - https://fontawesome.com/license (Commercial License) Copyright 2024 Fonticons, Inc. --><path d="M240 64l176 0 16 0 16 0 0 160 0 32 0 32c0 35.3-28.7 64-64 64l-192 0c-35.3 0-64-28.7-64-64l0-224 80 0 0 40.5-36.5 30.4C164.2 141 160 150 160 159.5l0 64.5c0 17.7 14.3 32 32 32l64 0c17.7 0 32-14.3 32-32l0-64.5c0-9.5-4.2-18.5-11.5-24.6L240 104.5 240 64zM224 32l-96 0c-17.7 0-32 14.3-32 32l0 224c0 53 43 96 96 96l192 0c53 0 96-43 96-96l0-32 48 0c61.9 0 112-50.1 112-112s-50.1-112-112-112l-80 0-16 0-16 0L224 32zM480 224l0-160 48 0c44.2 0 80 35.8 80 80s-35.8 80-80 80l-48 0zM0 464c0 8.8 7.2 16 16 16l544 0c8.8 0 16-7.2 16-16s-7.2-16-16-16L16 448c-8.8 0-16 7.2-16 16zM192 224l0-64.5 32-26.7 32 26.7 0 64.5-64 0z"/></svg>

<svg xmlns="http://www.w3.org/2000/svg" viewBox="0 0 640 512"><!--! Font Awesome Pro 6.4.2 by @fontawesome - https://fontawesome.com License - https://fontawesome.com/license (Commercial License) Copyright 2023 Fonticons, Inc. --><path d="M240 64H416h16 16V224v32 32c0 35.3-28.7 64-64 64H192c-35.3 0-64-28.7-64-64V64h80v40.5l-36.5 30.4C164.2 141 160 150 160 159.5V224c0 17.7 14.3 32 32 32h64c17.7 0 32-14.3 32-32V159.5c0-9.5-4.2-18.5-11.5-24.6L240 104.5V64zM224 32H128c-17.7 0-32 14.3-32 32V288c0 53 43 96 96 96H384c53 0 96-43 96-96V256h48c61.9 0 112-50.1 112-112s-50.1-112-112-112H448 432 416 224zM480 224V64h48c44.2 0 80 35.8 80 80s-35.8 80-80 80H480zM0 464c0 8.8 7.2 16 16 16H560c8.8 0 16-7.2 16-16s-7.2-16-16-16H16c-8.8 0-16 7.2-16 16zM192 224V159.5l32-26.7 32 26.7V224H192z"/></svg>
